!!!COM: John Williams
!!!OTL: Main Theme (A Section) 
!!!GAW: Star Wars: Episode IV: A New Hope
!!!ODT: 1977
!!!OCL: Frank Lehman
!!!ENC: Claire Arthur
!!!ENC2: John McNamara
**kern	**harte	**harm	**pedal	**cadence	**text
*clefG2	*	*	*	*	*
*k[b-e-]	*k[b-e-]	*k[b-e-]	*	*	*
*B-:	*B-:	*B-:	*	*	*
*M2/2	*M2/2	*M2/2	*	*	*
*MM200	*MM200	*MM200	*	*	*
12fL	F	.	.	.	.
12f	.	.	.	.	.
12fJ	.	.	.	.	.
=1	=1	=1	=1	=1	=1
1b-	Bb	I	.	.	.
=2	=2	=2	=2	=2	=2
1ff	Bb	I	.	.	.
=3	=3	=3	=3	=3	=3
6ee-	F:min7(*3,4)	?vP4P5m7	.	.	.
6dd	.	.	.	.	.
6cc	.	.	.	.	.
[2bb-	.	.	.	.	.
=4	=4	=4	=4	=4	=4
2bb-]	.	.	.	.	.
2ff	Bb	I	.	.	.
=5	=5	=5	=5	=5	=5
6ee-	F:min7(*3,4)	?vP4P5m7	.	.	.
6dd	.	.	.	.	.
6cc	.	.	.	.	.
[2bb-	.	.	.	.	.
=6	=6	=6	=6	=6	=6
2bb-]	.	.	.	.	.
2ff	Bb	I	.	.	.
=7	=7	=7	=7	=7	=7
6ee-	Ab	-VII	.	HC	.
6dd	G	.	.	.	.
6ee-	Ab	.	.	.	.
[2cc	F	V	.	.	.
=8	=8	=8	=8	=8	=8
2cc_	.	.	.	.	.
8cc]	.	.	.	.	.
8r	.	.	.	.	.
12fL	.	.	.	.	.
12f	.	.	.	.	.
12fJ	.	.	.	//	.
=9	=9	=9	=9	=9	=9
1b-	Bb	I	.	.	Bassline more complex than indicated in reduction
=10	=10	=10	=10	=10	=10
1ff	Bb/7	I7d	.	.	.
=11	=11	=11	=11	=11	=11
6ee-	Eb/3	IVb	.	.	.
6dd	.	.	.	.	.
6cc	.	.	.	.	.
[2bb-	.	.	.	.	.
=12	=12	=12	=12	=12	=12
2bb-]	Eb	IV	.	.	.
2ff	Bb	I	.	.	.
=13	=13	=13	=13	=13	=13
6ee-	F:min7(*3,4)	?vP4P5m7	.	.	.
6dd	.	.	.	.	.
6cc	.	.	.	.	.
[2bb-	.	.	.	.	.
=14	=14	=14	=14	=14	=14
2bb-]	Bb	I	.	.	.
2ff	Bb/5	Ic	.	.	.
=15	=15	=15	=15	=15	=15
6ee-	Ab/6	-VII	Pedal: F	HC	.
6dd	G/m7	.	.	.	.
6ee-	Ab/6	.	.	.	.
[2cc	F	V	.	.	.
=16	=16	=16	=16	=16	=16
2.cc]	.	.	.	.	.
4r	.	.	Pedal: None	||	.
=	=	=	=	=	=
*-	*-	*-	*-	*-	*-
